X: 22
T:Come Dance and Sing
M:4/4
L:1/8
Q:100
C:New England
R:Reel
K:D
((3ABc|:"D"d2) cd "A"e2 de|"D"f2 d2 d-edc|"G"B2e2 e-fed|"A"c2 A2 A2 Bc|"
D"d2 cd "A"e2 de|"D"f2 d2 d-edc|!
"G"B2 e2 "A"d-cBc|[1"D"d2 A2 D2 ((3ABc):|[2"D"d2 A2 D2 AG||"D"F2 A2 A-BA
G|F2 A2 A2 AG|F2 A2 d2 f2|!
"A"e-dcB A-BAG|"D"F2 A2 A-BAG|F2A2A2 ((3ABc|d2) e2 f-efg|[1"A"a2 A2 A2 A
G:|[2"A"a2 A2 A2 z2|]
